X:1
T:Title
%%score { ( 1 2 ) | ( 3 4 ) }
L:1/8
M:4/4
K:Eb
V:1 treble nm="Grand Piano"
V:2 treble 
V:3 bass 
V:4 bass 
V:1
 z4 z2[Q:1/4=100] z F | G2 B2 A2 G2 | [B,CG]4 [A,CF]2[K:bass] [G,CE]2 | %3
 [F,B,D]2[K:treble] [Dc]2 [Dc]2 BA | G6 z F | G2 B2 A2 G2 | G4 F2 B2 | =A2 [Ge]2 [Ge]2 [Fd][Ec] | %8
 [DB]6 F2 | F2 G2 A2 [Fc]2 | [Fc]2 BA G2 G2 | G2 A2 B2 [A_d]2 | c2- [=Ec-]2 [Fc]2 c2 | %13
 d2 cB e2 G2 |[M:9/8] B2 A G [Cc]2- [Cc] F2 |[M:4/4] F2 G2 A2 D-[DF] |[M:3/4] E6 |] %17
V:2
 z4 z2 E2 | x8 | x6[K:bass] x2 | z4[K:treble] z2 D2 | z4 z2 E2 | x8 | x8 | x8 | x8 | x8 | %10
 z2 D2 z4 | x8 | G2 z2 z4 | x8 |[M:9/8] x9 |[M:4/4] z4 z2 .[B,G]2 |[M:3/4] x6 |] %17
V:3
 z4 z2 G,A, | [E,B,E]2 [E,DE]2 [E,CE]2 [E,B,E]2 | A,,4 A,,2 A,,2 | %3
 B,,2 [B,,A,]2 [B,,F,]2 [B,,B,]2 | [E,B,E]6 G,A, | [E,B,E]2 [E,DE]2 [E,CE]2 [E,B,E]2 | %6
 [F,B,D]4 [F,B,D]2 [F,DF]2 | [F,CE]2 [F,B,]2 [F,=A,]2 [F,A,]2 | [B,,B,]6 [B,D]2 | %9
 [A,B,D]2 [G,B,=E]2 [F,A,F]2 [E,A,]2 | [D,F,]2 [B,,B,]2 [E,B,E]2 [E,B,E]2 | %11
 [B,C=E]2 [A,CF]2 [G,B,G]2[K:bass] [F,A,]2 | [=E,C]2 [C,B,]2 [F,A,]2 [F,A,F]2 | %13
 [B,F]2 [A,B,D]2[K:bass] [G,B,E]2 [E,B,E]2 | %14
[M:9/8] [E,D]2- [E,B,D]- [E,B,D] [A,,A,]2- [A,,A,] [A,CE]2 |[M:4/4] [A,CE]2 [G,B,E]2 [F,CE]2 z A, | %16
[M:3/4] [E,G,]6 |] %17
V:4
 z4 z2 E,2 | x8 | x8 | x8 | z4 z2 E,2 | x8 | x8 | x8 | x8 | x8 | x8 | x6[K:bass] x2 | x8 | %13
 x4[K:bass] x4 |[M:9/8] .G,3 z3 z3 |[M:4/4] z4 z2 B,,2 |[M:3/4] x6 |] %17

